X: 7
T: The Yellow Wattle
R: jig
M: 6/8
L: 1/8
K: Dmix
|: d^cA A2c|d^cA GED|d^cA A2D|G2G GED|
d^cA A2c|d^cA GED|E2E cGE|EDD D2A:|
D/E/F/G/A/B/c3|AdB cAG|AB^c ded|dfd AFD|
D3 c3|AdB cAG|E2E cGE|EDD D2A|
DF/G/A c3|AdB cAG|AB/^c/d ded|dAF DFA|
D/E/F/G/A/B/c3|AdB cAG|E2E cde|dcA GED||


Tune 1237	Setting 14536

